X:211
T:B211- I am the Duke of Norfolk
S:(2nd/2) see also John Anderson, My Jo,  Sound a Charge(2) 
Q:1/4=120
L:1/4
M:C
K:Gm
G|G^FGA|B2BB|AFFF|F2^FD|\
G2GA|B2AG|D2D2|D2de|\
fdBd|f3d|cAFA|c2Bc|\
ddcB|A2G^F|G2G2|G3|]
